X:2484
T:Polska från Uppland
T:Svenska Folkdansar H2 nr 33
O:Uppland
B:Traditioner av Svenska Folkdansar Häfte 2, nr 33
R:Polska
Z:Nils L
U:V=wedge
U:t=tenuto
M:3/4
L:1/16
K:A
CEAc e2ec d4 | dcBA cBAG A4 | CEAc e2ec d4 | dcBA cBAG A4 |
Acea g2gb B2Bd | cBAG A4 A,4 :: ABcd e2e2 f2f2 | e2a2 B2ag a4 |
ABcd e2e2 f2f2 | e2a2 B2ag a4 | A,CEA c2ce  B2Bd | cBAG A4 A,4 :|
(:musicend:)
(:music:)
